X: 328
T: DO YOU MISTRUST ME?
T: B-fuil amhras agad orm?
B: O'Neill's 328
M: 6/8
L: 1/8
Z: 1999 by John Chambers <jc@trillian.mit.edu>
N: "Slow with feeling"
N: "Collected by J.O'Neill"
K:Gm
  d>cB A>Bc | GAF (F<B) (B/c/) | dcd edc | dBA G2(B/c/) |
| d>cB A>Bc | GAF (F<B) (B/c/) | d>cd edc | dGG G2z ||
|| F>GA BAB | c>Bc dBB | F>GA BAB | c>de {e}d2(B/c/) |
| dcB cBA | G^FG B2(B/c/) | ded cBc | dGG G2z ||


